!!!!SEGMENT: pl-sa--138-a-iii-38--003_luna-georgius--beatus-vir-gloria-patri.krn
!!!cenid: 17xx:481
!!!COM: Luna, Georgius
!!!COM-rismID: pe41010079
!!!CDT:
!!!CNT:
!!!OPR: Beatus vir
!!!OTL: Gloria Patri
!!!OMV: 003
!!!PDT: 1760
!!!AGN: Sacred
!!!SMS-siglum: PL-SA
!!!SMS-shelfmark: 138/A III 38
!!!SMS-shelfwork: 001-003 M
!!!SMS-variant:
!!!SMS-altvar:
!!!NIFC-rismSourceID: 1001030074
!!!NIFC-rismChildID: 1001030074
!!!NIFC-islandoraID:
!!!URL-pdf-islandora:
!!!URL-scan: https://bc.bdsandomierz.pl/dlibra/publication/1495/edition/1463/content @EN{Scan in the Sandomierz Diocese Digital Library} @PL{Skany w portalu Cyfrowa Biblioteka Diecezjalna w Sandomierzu}
!!!ONB-nifc: UWAGA: części: Beatus vir, Dispersit, Gloria Patri. UWAGA: brak partii violino primo
!!!AIN: 5 empty 2 oboe 1 violn 1 vox
!!!key:
**kern	**dynam	**kern	**kern	**kern	**text	**kern	**text	**kern	**kern	**kern	**kern
*part9	*part9	*part8	*part7	*part6	*part6	*part5	*part5	*part4	*part3	*part2	*part1
*staff9	*	*staff8	*staff7	*staff6	*staff6	*staff5	*staff5	*staff4	*staff3	*staff2	*staff1
*group5	*	*group4	*group4	*group3	*	*group3	*	*group2	*group2	*group1	*group1
*Iempty	*	*Ivioln	*Iempty	*Iempty	*	*Ivox	*	*Iempty	*Iempty	*Ioboe	*Ioboe
*I"Fondamento.	*	*I"Violino Secundo.	*I"	*I"	*	*I"Canto.	*	*I"Clarino Secundo.	*I"Clarino Primo.	*I"Oböa Secunda.	*I"Oböa Prima
*I'B	*	*I'vl 2	*I'	*I'	*	*I'S	*	*I'clno 2	*I'clno 1	*I'ob 2	*I'ob 1
*clefF4	*	*clefG2	*clefG2	*clefC4	*	*clefC1	*	*clefG2	*clefG2	*clefG2	*clefG2
*k[]	*	*k[]	*k[]	*k[]	*	*k[]	*	*k[]	*k[]	*k[]	*k[]
*C:	*	*C:	*C:	*C:	*	*C:	*	*C:	*C:	*C:	*C:
*M2/4	*	*M2/4	*M2/4	*M2/4	*	*M2/4	*	*M2/4	*M2/4	*M2/4	*M2/4
!LO:TX:b:t=Gloria Patri	!	!LO:TX:b:t=Gloria Patri	!	!	!	!	!	!LO:TX:b:t=Gloria Patri.	!LO:TX:b:t=Gloria Patri	!LO:TX:b:t=Gloria Patri.	!LO:TX:b:t=Gloria Patri
!LO:TX:a:t=All'(egr)o:	!	!LO:TX:a:t=All'(egr)o:	!LO:TX:a:t=problem: brak partii violino primo	!LO:TX:a:t=problem:brak nazwy partii	!	!LO:TX:a:t=All'(egr)o	!	!LO:TX:a:t=All'(egr)o:	!LO:TX:a:t=All'(egr)o.	!LO:TX:a:t=All'(egr)o.	!LO:TX:a:t=All'(egr)o.
8r	.	8gg\	8ryy	8r	.	8r	.	8r	8r	8gg\	8gg\
=1	=1	=1	=1	=1	=1	=1	=1	=1	=1	=1	=1
!LO:TX:t=P:problem=mixed beam	!	!	!	!LO:TX:a:t=all(egr)o	!	!LO:N:vis=00	!	!	!	!	!
!	!	!	!	!LO:N:vis=00	!	!	!	!	!	!	!
8C\L	.	4cc\	2ryy	0r	.	0r	.	4ee\	4gg\	4cc\	4cc\
8E\	.	.	.	.	.	.	.	.	.	.	.
8F\	.	4aa\	.	.	.	.	.	4ff\	4aa\	4aa\	4aa\
8FF/J	.	.	.	.	.	.	.	.	.	.	.
=2	=2	=2	=2	=2	=2	=2	=2	=2	=2	=2	=2
.	.	8qqaa/	.	.	.	.	.	.	.	8qqaa/	8qqaa/
8C\L	.	4.gg\	2ryy	.	.	.	.	4ee\	4gg\	4.gg\	4.gg\
8D\	.	.	.	.	.	.	.	.	.	.	.
8E\	.	.	.	.	.	.	.	8r	8r	.	.
8G\J	.	8ff\	.	.	.	.	.	8dd\	8ff\	8ff\	8ff\
=3	=3	=3	=3	=3	=3	=3	=3	=3	=3	=3	=3
!LO:TX:t=P:problem=mixed beam	!	!	!	!	!	!	!	!	!	!	!
8c\L	.	8ee\L	2ryy	.	.	.	.	4cc\	4ee\	8ee\L	8ee\L
8F\	.	16dd\L	.	.	.	.	.	.	.	16dd\L	16dd\L
.	.	16cc\JJ	.	.	.	.	.	.	.	16cc\JJ	16cc\JJ
8G\	.	16b/LL	.	.	.	.	.	8r	8r	16b/LL	16b\LL
.	.	16a/	.	.	.	.	.	.	.	16a/	16a\
8GG/J	.	16g/	.	.	.	.	.	8g/	8dd\	16g/	16g\
.	.	16f/JJ	.	.	.	.	.	.	.	16f/JJ	16f\JJ
=4	=4	=4	=4	=4	=4	=4	=4	=4	=4	=4	=4
8C\L	.	4e/	2ryy	.	.	.	.	8cc\L	8ee\L	4e/	4e/
8D\	.	.	.	.	.	.	.	16cc\L	16ee\L	.	.
.	.	.	.	.	.	.	.	16cc\JJ	16ee\JJ	.	.
8E\	.	8r	.	.	.	.	.	8cc\L	8ee\L	8r	8r
8E\J	.	8cc\	.	.	.	.	.	8cc\J	8ee\J	8cc\	8cc\
=5	=5	=5	=5	=5	=5	=5	=5	=5	=5	=5	=5
!	!	!	!	!LO:N:vis=00	!	!LO:N:vis=00	!	!	!	!	!
8F\L	.	16dd\LL	2ryy	0r	.	0r	.	4g/	4dd\	16dd\LL	16dd\LL
.	.	16b\	.	.	.	.	.	.	.	16b\	16b\
8E\	.	16cc\	.	.	.	.	.	.	.	16cc\	16cc\
.	.	16ee\JJ	.	.	.	.	.	.	.	16ee\JJ	16ee\JJ
8F\	.	16dd\LL	.	.	.	.	.	4r	4r	16dd\LL	16dd\LL
.	.	16b\	.	.	.	.	.	.	.	16b\	16b\
8E\J	.	16cc\	.	.	.	.	.	.	.	16cc\	16cc\
.	.	16gg\JJ	.	.	.	.	.	.	.	16gg\JJ	16gg\JJ
=6	=6	=6	=6	=6	=6	=6	=6	=6	=6	=6	=6
.	.	8qqgg/	.	.	.	.	.	.	.	8qqgg/	8qqgg/
8D\L	.	4ff\	2ryy	.	.	.	.	4dd\	4ff\	4ff\	4ff\
8GG/	.	.	.	.	.	.	.	.	.	.	.
8C/	.	4ee\	.	.	.	.	.	4cc\	4ee\	4ee\	8ee\L
8E/J	.	.	.	.	.	.	.	.	.	.	8cc\J
=7	=7	=7	=7	=7	=7	=7	=7	=7	=7	=7	=7
8F\L	.	16dd\LL	2ryy	.	.	.	.	4g/	4dd\	16dd\LL	16dd\LL
.	.	16b\	.	.	.	.	.	.	.	16b\	16b\
8E\	.	16cc\	.	.	.	.	.	.	.	16cc\	16cc\
.	.	16ee\JJ	.	.	.	.	.	.	.	16ee\JJ	16ee\JJ
8F\	.	16dd\LL	.	.	.	.	.	4r	4r	16dd\LL	16dd\LL
.	.	16b\	.	.	.	.	.	.	.	16b\	16b\
8E\J	.	16cc\	.	.	.	.	.	.	.	16cc\	16cc\
.	.	16gg\JJ	.	.	.	.	.	.	.	16gg\JJ	16gg\JJ
=8	=8	=8	=8	=8	=8	=8	=8	=8	=8	=8	=8
.	.	8qqgg/	.	.	.	.	.	.	.	8qqgg/	8qqgg/
8D/L	.	4ff\	2ryy	.	.	.	.	4dd\	4ff\	4ff\	4ff\
8GG/	.	.	.	.	.	.	.	.	.	.	.
8C/	.	4ee\	.	.	.	.	.	4cc\	4ee\	4ee\	4ee\
8E/J	.	.	.	.	.	.	.	.	.	.	.
=9	=9	=9	=9	=9	=9	=9	=9	=9	=9	=9	=9
!	!	!	!	!LO:N:vis=00	!	!LO:N:vis=00	!	!	!	!	!
8F\L	.	16aa\LL	2ryy	0r	.	0r	.	4ff\	4aa\	16aa\LL	16aa\LL
.	.	16ff\	.	.	.	.	.	.	.	16ff\	16ff\
8F\	.	16cc#X\	.	.	.	.	.	.	.	16cc#X\	16cc#X\
.	.	16dd\JJ	.	.	.	.	.	.	.	16dd\JJ	16dd\JJ
8F\	.	16dd\LL	.	.	.	.	.	4r	4r	16dd\LL	16dd\LL
.	.	16ff\	.	.	.	.	.	.	.	16ff\	16ff\
8F\J	.	16aa\	.	.	.	.	.	.	.	16aa\	16aa\
.	.	16ff\JJ	.	.	.	.	.	.	.	16ff\JJ	16ff\JJ
!	!	!	!	!	!	!	!	!	!	!	!LO:LB:g=original
=10	=10	=10	=10	=10	=10	=10	=10	=10	=10	=10	=10
8E\L	.	16gg\LL	2ryy	.	.	.	.	4ee\	4gg\	16gg\LL	16gg\LL
.	.	16ee\	.	.	.	.	.	.	.	16ee\	16ee\
8E\	.	16b\	.	.	.	.	.	.	.	16bn\	16b\
!	!	!	!	!	!	!	!	!	!	!LO:TX:a:t=SIC:s=16ccn	!LO:TX:a:t=problem: kasownik nad nutą
.	.	16ccn\JJ	.	.	.	.	.	.	.	16cc\JJ	16ccn\JJ
8E\	.	16cc\LL	.	.	.	.	.	4r	4r	16cc\LL	16cc\LL
.	.	16ee\	.	.	.	.	.	.	.	16ee\	16ee\
8E\J	.	16gg\	.	.	.	.	.	.	.	16gg\	16gg\
.	.	16ee\JJ	.	.	.	.	.	.	.	16ee\JJ	16ee\JJ
=11	=11	=11	=11	=11	=11	=11	=11	=11	=11	=11	=11
8D\L	.	16ff\LL	2ryy	.	.	.	.	4dd\	4ff\	16ff\LL	16ff\LL
.	.	16dd\	.	.	.	.	.	.	.	16dd\	16dd\
8D\	.	16a\	.	.	.	.	.	.	.	16a\	16a\
.	.	16b\JJ	.	.	.	.	.	.	.	16b\JJ	16b\JJ
8G\	.	16b\LL	.	.	.	.	.	4r	4r	16b\LL	16b\LL
.	.	16dd\	.	.	.	.	.	.	.	16dd\	16dd\
8G\J	.	16ff\	.	.	.	.	.	.	.	16ff\	16ff\
.	.	16dd\JJ	.	.	.	.	.	.	.	16dd\JJ	16dd\JJ
!	!	!	!	!	!	!	!	!	!LO:LB:g=original	!LO:LB:g=original	!
=12	=12	=12	=12	=12	=12	=12	=12	=12	=12	=12	=12
!LO:TX:t=P:problem=mixed beam	!	!	!	!	!	!	!	!	!	!	!
8C\L	.	8ee\L	2ryy	.	.	.	.	8cc\L	8ee\L	8ee\L	8ee\L
8E\	.	8cc\	.	.	.	.	.	8cc\	8ee\	8cc\	8cc\
8G\	.	8dd\	.	.	.	.	.	8g\	8dd\	8dd\	8dd\
8GG/J	.	8b\J	.	.	.	.	.	8g\J	8dd\J	8b\J	8b\J
!	!	!LO:LB:g=original	!	!	!	!	!	!	!	!	!
=13	=13	=13	=13	=13	=13	=13	=13	=13	=13	=13	=13
!	!	!	!	!LO:N:vis=00	!	!	!	!	!	!	!
4C/	.	4cc\	2ryy	0r	.	4r	.	4cc\	4ee\	4cc\	4cc\
!	!LO:DY:t=pia:	!	!	!	!	!	!	!	!	!	!
!	!LO:DY:a	!	!	!	!	!	!	!	!	!	!
4r	p	4r	.	.	.	8r	.	4r	4r	4r	4r
.	.	.	.	.	.	(8gg\	Glo-	.	.	.	.
=14	=14	=14	=14	=14	=14	=14	=14	=14	=14	=14	=14
!LO:TX:t=P:problem=mixed beam	!	!LO:N:vis=00	!	!	!	!	!	!LO:N:vis=00	!LO:N:vis=00	!LO:N:vis=00	!LO:N:vis=00
8C\L	.	0r	2ryy	.	.	4cc\)	.	0r	0r	0r	0r
8E\	.	.	.	.	.	.	.	.	.	.	.
8F\	.	.	.	.	.	8cc\	-ri-	.	.	.	.
8FF/J	.	.	.	.	.	8aa\	-a	.	.	.	.
=15	=15	=15	=15	=15	=15	=15	=15	=15	=15	=15	=15
8C\L	.	.	2ryy	.	.	4gg\	Pa-	.	.	.	.
8D\	.	.	.	.	.	.	.	.	.	.	.
8E\	.	.	.	.	.	8gg\	-tri	.	.	.	.
8G\J	.	.	.	.	.	8ff\	et	.	.	.	.
=16	=16	=16	=16	=16	=16	=16	=16	=16	=16	=16	=16
!LO:TX:t=P:problem=mixed beam	!	!	!	!	!	!	!	!	!	!	!
8c\L	.	.	2ryy	.	.	8ee\L	Fi-	.	.	.	.
8F\	.	.	.	.	.	16dd\L	.	.	.	.	.
.	.	.	.	.	.	16cc\JJ	.	.	.	.	.
8G\	.	.	.	.	.	16b\LL	.	.	.	.	.
.	.	.	.	.	.	16a\JJ	.	.	.	.	.
8GG/J	.	.	.	.	.	16g\LL	-li-	.	.	.	.
.	.	.	.	.	.	16f\JJ	.	.	.	.	.
!LO:LB:g=original	!	!	!	!	!	!	!	!	!	!	!
=17	=17	=17	=17	=17	=17	=17	=17	=17	=17	=17	=17
!	!	!	!	!LO:N:vis=00	!	!	!	!	!	!	!
8C\L	.	.	2ryy	0r	.	4e/	-o	.	.	.	.
8D\	.	.	.	.	.	.	.	.	.	.	.
8E\	.	.	.	.	.	8cc\	et	.	.	.	.
8E\J	.	.	.	.	.	8cc\	Spi-	.	.	.	.
=18	=18	=18	=18	=18	=18	=18	=18	=18	=18	=18	=18
!	!	!LO:N:vis=00	!	!	!	!	!	!LO:N:vis=00	!LO:N:vis=00	!LO:N:vis=00	!LO:N:vis=00
8F\L	.	0r	2ryy	.	.	16dd\LL	-ri-	0r	0r	0r	0r
.	.	.	.	.	.	16b\J	.	.	.	.	.
8E\	.	.	.	.	.	8cc\J	.	.	.	.	.
8F\	.	.	.	.	.	16dd\LL	-tu-	.	.	.	.
.	.	.	.	.	.	16b\JJ	.	.	.	.	.
8E\J	.	.	.	.	.	16cc\LL	-i	.	.	.	.
.	.	.	.	.	.	16gg\JJ	.	.	.	.	.
=19	=19	=19	=19	=19	=19	=19	=19	=19	=19	=19	=19
!LO:TX:t=P:problem=mixed beam	!	!	!	!	!	!	!	!	!	!	!
8D\L	.	.	2ryy	.	.	4ff\	Sanc-	.	.	.	.
8GG/	.	.	.	.	.	.	.	.	.	.	.
8C/	.	.	.	.	.	8ee\	-to	.	.	.	.
!	!	!	!	!	!	!LO:TX:a:t=c:	!	!	!	!	!
8E/J	.	.	.	.	.	8cc\	Spi-	.	.	.	.
=20	=20	=20	=20	=20	=20	=20	=20	=20	=20	=20	=20
8F\L	.	.	2ryy	.	.	16dd\LL	-ri-	.	.	.	.
.	.	.	.	.	.	16b\J	.	.	.	.	.
8E\	.	.	.	.	.	8cc\J	.	.	.	.	.
8F\	.	.	.	.	.	16dd\LL	-tu-	.	.	.	.
.	.	.	.	.	.	16b\JJ	.	.	.	.	.
8E\J	.	.	.	.	.	16cc\LL	-i	.	.	.	.
.	.	.	.	.	.	16gg\JJ	.	.	.	.	.
!	!	!	!	!	!	!LO:LB:g=original	!	!	!	!	!
=21	=21	=21	=21	=21	=21	=21	=21	=21	=21	=21	=21
!	!	!	!	!LO:N:vis=0	!	!	!	!	!	!	!
8D\L	.	.	2ryy	1r	.	4ff\	Sanc-	.	.	.	.
8GG\J	.	.	.	.	.	.	.	.	.	.	.
8C\L	.	.	.	.	.	4ee\	-to	.	.	.	.
8c\J	.	.	.	.	.	.	.	.	.	.	.
=22	=22	=22	=22	=22	=22	=22	=22	=22	=22	=22	=22
!	!	!LO:TX:a:t=problem: brak kreski taktowej po pauzach	!	!	!	!	!	!LO:N:vis=0	!LO:N:vis=0	!	!
4F\	.	2r	2ryy	.	.	8dd\L	Sanc-	1r	1r	2r	2r
.	.	.	.	.	.	8a\J	.	.	.	.	.
!LO:TX:t=P:problem=mixed beam	!	!	!	!	!	!	!	!	!	!	!
.	.	.	.	.	.	8qqcc/	.	.	.	.	.
8G\L	.	.	.	.	.	4b\	.	.	.	.	.
8GG/J	.	.	.	.	.	.	.	.	.	.	.
=23	=23	=23yy	=23	=23	=23	=23	=23	=23	=23	=23	=23
!	!	!LO:TX:a:t=Tutti	!	!	!	!	!	!	!	!	!
4C/	.	4r	2ryy	4r	.	4cc\	-to	.	.	4r	4r
!LO:TX:a:t=Tutti	!	!	!	!	!	!	!	!	!	!	!
4r	.	8r	.	8r	.	8r	.	.	.	8r	8r
.	.	8gg\	.	8e\	Si-	8gg\	Si-	.	.	8gg\	8gg\
!	!	!	!	!	!	!	!	!LO:LB:g=original	!	!	!
=24	=24	=24	=24	=24	=24	=24	=24	=24	=24	=24	=24
!LO:TX:t=P:problem=mixed beam	!	!	!	!	!	!	!	!	!	!	!
8C\L	.	4cc\	2ryy	4e\	.	4cc\	.	4ee\	4gg\	4cc\	4cc\
8E\	.	.	.	.	.	.	.	.	.	.	.
8F\	.	4aa\	.	4f\	-cut	4aa\	-cut	4ff\	4aa\	4aa\	4aa\
8FF/J	.	.	.	.	.	.	.	.	.	.	.
=25	=25	=25	=25	=25	=25	=25	=25	=25	=25	=25	=25
.	.	8qqaa/	.	.	.	.	.	.	.	8qqaa/	8qqaa/
8C\L	.	4.gg\	2ryy	4.e\	e-	4.gg\	e-	4ee\	4gg\	4.gg\	4.gg\
8D\	.	.	.	.	.	.	.	.	.	.	.
8E\	.	.	.	.	.	.	.	8r	8r	.	.
8G\J	.	8ff\	.	8d\	-rat	8ff\	-rat	8dd\	8ff\	8ff\	8ff\
=26	=26	=26	=26	=26	=26	=26	=26	=26	=26	=26	=26
!LO:TX:t=P:problem=mixed beam	!	!	!	!	!	!	!	!	!	!	!
8c\L	.	8ee\L	2ryy	8c\	in	8ee\	in	4cc\	4ee\	8ee\L	8ee\L
8F\	.	16dd\L	.	16d\LL	prin-	16dd\LL	prin-	.	.	16dd\L	16dd\L
.	.	16cc\JJ	.	16e\JJ	.	16cc\JJ	.	.	.	16cc\JJ	16cc\JJ
8G\	.	16b\LL	.	8d\	-ci-	16b\LL	-ci-	8r	8r	16b\LL	16b\LL
.	.	16a\	.	.	.	16a\JJ	.	.	.	16a\	16a\
8GG/J	.	16g\	.	8d\	-pi-	16g\LL	-pi-	8g/	8dd\	16g\	16g\
.	.	16f\JJ	.	.	.	16f\JJ	.	.	.	16f\JJ	16f\JJ
=27	=27	=27	=27	=27	=27	=27	=27	=27	=27	=27	=27
8C\L	.	4e/	2ryy	4c\	-o	4e/	-o	8cc\L	8ee\L	4e/	4e/
8D\	.	.	.	.	.	.	.	16cc\L	16ee\L	.	.
.	.	.	.	.	.	.	.	16cc\JJ	16ee\JJ	.	.
8E\	.	8r	.	8r	.	8r	.	8cc\L	8ee\L	8r	8r
8G\J	.	8dd\	.	8B\	et	8dd\	et	8g\J	8dd\J	8dd\	8dd\
!	!	!	!	!LO:LB:g=original	!	!	!	!	!	!	!
=28	=28	=28	=28	=28	=28	=28	=28	=28	=28	=28	=28
8C\L	.	16ee\LL	2ryy	8c\	nunc	8ee\	nunc	8cc\L	8ee\L	16ee\LL	16ee\LL
.	.	16cc\J	.	.	.	.	.	.	.	16cc\J	16cc\J
8D\	.	8gg\J	.	8c\	et	8ee\	et	16cc\L	16ee\L	8gg\J	8gg\J
.	.	.	.	.	.	.	.	16cc\JJ	16ee\JJ	.	.
8E\	.	16gg\LL	.	8c\	nunc	8ee\	nunc	8cc\L	8ee\L	16gg\LL	16gg\LL
.	.	16ee\	.	.	.	.	.	.	.	16ee\	16ee\
8F\J	.	16dd\	.	8c\	et	8ee\	et	8cc\J	8ee\J	16dd\	16dd\
.	.	16cc\JJ	.	.	.	.	.	.	.	16cc\JJ	16cc\JJ
=29	=29	=29	=29	=29	=29	=29	=29	=29	=29	=29	=29
8G\L	.	16dd\LL	2ryy	8B\	sem-	8dd\	sem-	8g/L	8dd\L	16dd\LL	16dd\LL
.	.	16b\J	.	.	.	.	.	.	.	16b\J	16b\J
8A\	.	8g\J	.	8B\	-per	8dd\	-per	16g/L	16dd\L	8g\J	8g\J
.	.	.	.	.	.	.	.	16g/JJ	16dd\JJ	.	.
8B\	.	16g\LL	.	8r	.	8r	.	8g/L	8dd\L	16g\LL	16g\LL
.	.	16b\	.	.	.	.	.	.	.	16b\	16b\
8G\J	.	16dd\	.	16B\	et	16dd\	et	8g/J	8dd\J	16dd\	16dd\
.	.	16ff\JJ	.	16B\	in	16dd\	in	.	.	16ff\JJ	16ff\JJ
=30	=30	=30	=30	=30	=30	=30	=30	=30	=30	=30	=30
8C\L	.	16ee\LL	2ryy	8c\	se-	8ee\	Sae-	8cc\L	8ee\L	16ee\LL	16ee\LL
.	.	16cc\J	.	.	.	.	.	.	.	16cc\J	16cc\J
8D\	.	8gg\J	.	16c\	-cu-	16ee\	-cu-	16cc\L	16ee\L	8gg\J	8gg\J
.	.	.	.	16c\	-la	16ee\	-la	16cc\JJ	16ee\JJ	.	.
8E\	.	16gg\LL	.	8c\	se-	8ee\	Sae-	8cc\L	8ee\L	16gg\LL	16gg\LL
.	.	16ee\	.	.	.	.	.	.	.	16ee\	16ee\
8F\J	.	16dd\	.	8c\	-cu-	8ee\	-cu-	8cc\J	8ee\J	16dd\	16dd\
.	.	16cc\JJ	.	.	.	.	.	.	.	16cc\JJ	16cc\JJ
!	!	!	!	!	!	!LO:LB:g=original	!	!	!	!	!LO:LB:g=original
=31	=31	=31	=31	=31	=31	=31	=31	=31	=31	=31	=31
8G\L	.	16dd\LL	2ryy	8B\	-lo-	8dd\	-lo-	4g/	4dd\	16dd\LL	16dd\LL
.	.	16b\J	.	.	.	.	.	.	.	16b\J	16b\J
16G\L	.	8g\J	.	8B\	-rum	8dd\	-rum	.	.	8g\J	8g\J
16F\JJ	.	.	.	.	.	.	.	.	.	.	.
8E\L	.	8r	.	8r	.	8r	.	4r	4r	8r	8g\L
8E\J	.	8g/	.	8F/	a-	8cc\	a-	.	.	8g/	8cc\J
=32	=32	=32	=32	=32	=32	=32	=32	=32	=32	=32	=32
!	!	!	!	!	!	!	!	!LO:N:vis=0	!LO:N:vis=0	!	!
8F\L	.	8a/L	2ryy	8A\L	.	8a\L	.	1r	1r	8a/L	8a\L
8E\	.	8g/	.	8G\	.	16b\L	.	.	.	8g/	16b\L
.	.	.	.	.	.	16cc\JJ	.	.	.	.	16cc\JJ
8F\	.	8a/	.	8A\	.	4dd\	.	.	.	8a/	4dd\
8D\J	.	8f/J	.	8F\J	.	.	.	.	.	8f/J	.
!LO:LB:g=original	!	!LO:LB:g=original	!	!LO:LB:g=original	!	!	!	!	!	!LO:LB:g=original	!
=33	=33	=33	=33	=33	=33	=33	=33	=33	=33	=33	=33
8G\L	.	8b\L	2ryy	8B\L	.	8b\L	.	.	.	8b\L	8b\L
8F\	.	8a\	.	8A\	.	16cc\L	.	.	.	8a\	16cc\L
.	.	.	.	.	.	16dd\JJ	.	.	.	.	16dd\JJ
8G\	.	8b\	.	8B\	.	4ee\	.	.	.	8b\	4ee\
8E\J	.	8g\J	.	8G\J	.	.	.	.	.	8g\J	.
=34	=34	=34	=34	=34	=34	=34	=34	=34	=34	=34	=34
8A\L	.	8cc\L	2ryy	8c\L	.	8cc\L	.	2r	2r	8cc\L	8cc\L
8G\	.	8b\	.	8B\	.	16dd\L	.	.	.	8b\	16dd\L
.	.	.	.	.	.	16ee\JJ	.	.	.	.	16ee\JJ
8A\	.	8cc\	.	8c\	.	4ff\	.	.	.	8cc\	4ff\
8F\J	.	8a\J	.	8A\J	.	.	.	.	.	8a\J	.
=35	=35	=35	=35	=35	=35	=35	=35	=35	=35	=35	=35
8G\L	.	8b\L	2ryy	4B\	.	4dd\	.	8g\L	8dd\L	8b\L	8dd\L
8F\	.	8dd\	.	.	.	.	.	8g\	8dd\	8dd\	8bb\
8E\	.	8ee\	.	8c\L	-men	8ee\L	-men	8cc\	8ee\	8ee\	8ccc\
8F\J	.	8dd\J	.	8d\J	.	8ff\J	.	8dd\J	8ff\J	8dd\J	8ff\J
=36	=36	=36	=36	=36	=36	=36	=36	=36	=36	=36	=36
4G\	.	4cc\	2ryy	4c\	a-	4ee\	a-	4cc\	4ee\	4cc\	4ee\
4GG/	.	4b\	.	4B\	.	4dd\	.	4g\	4dd\	4b\	4dd\
=37	=37	=37	=37	=37	=37	=37	=37	=37	=37	=37	=37
!	!	!	!	!	!	!	!	!	!LO:TX:b:t=problem: napis/znak	!	!
4C/	.	4cc\	2ryy	4c\	-men	4cc\	-men.	4cc\	4ee;\	4cc\	4cc\
!LO:TX:a:t=problem: ozdobna kreska taktowa	!	!LO:TX:a:t=problem: ozdobna kreska taktowa	!	!LO:TX:a:t=problem: ozdobna kreska taktowa	!	!LO:TX:a:t=problem: ozdobna kreska taktowa	!	!LO:TX:a:t=problem: ozdobna kreska taktowa	!LO:TX:a:t=problem: urwana kartka. Brak kreski taktowej	!LO:TX:a:t=problem: ozdobna kreska taktowa	!LO:TX:a:t=problem: ozdobna kreska taktowa
4r	.	4r	.	4r	.	4r	.	4r	4r	4r	4r
==	==	==	==	==	==	==	==	==	==	==	==
*-	*-	*-	*-	*-	*-	*-	*-	*-	*-	*-	*-
!!!system-decoration: [(g1)][(g2)][(g3)][(g4)][(g5)]
!!!ENC: Anna Matuszewska
!!!END: 2020-08-30
!!!YEC: Copyright 2022 Narodowy Instytut Fryderyka Chopina (https://polishscores.org)
!!!YEM: License CC-BY-4.0 (https://creativecommons.org/licenses/by/4.0)
